app/dist/common/images/clearvise-ag.svg

<svg height="18" viewBox="0 0 18 18" width="18" xmlns="http://www.w3.org/2000/svg"><path d="m0 0h18v18h-18z" fill="#f0f3fa"/><path d="m8 9.28-.93-5.28-2.07 3.27 2.07 3.16z" fill="#00a7bf"/><path d="m9 7 1.88-3h-3.76z" fill="#ffdc00"/><path d="m5 14 2-3.57h-4z" fill="#00a7bf"/><path d="m13 14 2-3.57h-4zm-4.18 0h-3.76l4.46-3.57h1.48z" fill="#44bf00"/><path d="m13.07 7 1.93 3.43-5.3-2.26-.7-1.17z" fill="#ffdc00"/></svg>

<!-- by TradingView --><svg width="18" height="18" viewBox="0 0 18 18" xmlns="http://www.w3.org/2000/svg"><path fill="#F0F3FA" d="M0 0h18v18H0z"/><path d="M8 9.28 7.07 4 5 7.27l2.07 3.16L8 9.28Z" fill="#00A7BF"/><path d="m9 7 1.88-3H7.12L9 7Z" fill="#FFDC00"/><path d="m5 14 2-3.57H3L5 14Z" fill="#00A7BF"/><path d="m13 14 2-3.57h-4L13 14ZM8.82 14H5.06l4.46-3.57H11L8.82 14Z" fill="#44BF00"/><path d="M13.07 7 15 10.43 9.7 8.17 9 7h4.07Z" fill="#FFDC00"/></svg>
